X: 789
T: Da honghua
L: 1/8
M: 2/4
K: D
d> f e3/ f/ [I:setbarnb 1]| 
d> f e3/ f/ | 
d2e d | 
c BA2 | 
F A f e/ d/ | 
B d B A | 
B d B A | 
F A B/ A/ F/ E/ | 
D4 |]

@@@ Tune index: 9663
